X: 16596
T: Hand Me Down The Tickle
R: jig
M: 6/8
K: Dmajor
dDD ADD|d2g gfe|dDD ADF|GEF GAc|
dDD ADD|d2g gfe|fdB AGF|GEF GAc:|
~d3 dfd|dfd ecA|(~d3{e}d) AF|GEF GAc|
[1 ~d3 dfd|dfd efg|fdB AGF|GEF GAc:|
[2 dfa afd|gef ~g2a|fdB AGF|GEF GAc||

